Catch-A-Fire_Free-LR-Presets.co.lrtemplate
s = {
	id = "2B781026-0926-43AB-9845-269283F73EA4",
	internalName = "Catch-A-Fire_Free-Lookfilter",
	title = "Catch-A-Fire_Free-Lookfilter",
	type = "Develop",
	value = {
		settings = {
			Blacks2012 = 30,
			BlueHue = 0,
			BlueSaturation = 0,
			CameraProfile = "Embedded",
			Clarity2012 = 35,
			ColorNoiseReduction = 0,
			ColorNoiseReductionDetail = 50,
			ColorNoiseReductionSmoothness = 50,
			Contrast2012 = 35,
			ConvertToGrayscale = true,
			EnableCalibration = true,
			EnableCircularGradientBasedCorrections = true,
			EnableDetail = true,
			EnableEffects = true,
			EnableGradientBasedCorrections = true,
			EnableGrayscaleMix = true,
			EnableSplitToning = true,
			Exposure2012 = 0.4,
			GrainAmount = 0,
			GrainFrequency = 50,
			GrainSize = 25,
			GrayMixerAqua = 10,
			GrayMixerBlue = 10,
			GrayMixerGreen = 15,
			GrayMixerMagenta = 0,
			GrayMixerOrange = 0,
			GrayMixerPurple = 0,
			GrayMixerRed = 10,
			GrayMixerYellow = 10,
			GreenHue = 0,
			GreenSaturation = 0,
			Highlights2012 = -15,
			LuminanceNoiseReductionContrast = 0,
			LuminanceNoiseReductionDetail = 50,
			LuminanceSmoothing = 0,
			ParametricDarks = 0,
			ParametricHighlightSplit = 75,
			ParametricHighlights = 0,
			ParametricLights = 0,
			ParametricMidtoneSplit = 50,
			ParametricShadowSplit = 25,
			ParametricShadows = 0,
			PostCropVignetteAmount = -15,
			PostCropVignetteFeather = 50,
			PostCropVignetteHighlightContrast = 0,
			PostCropVignetteMidpoint = 50,
			PostCropVignetteRoundness = 0,
			PostCropVignetteStyle = 1,
			ProcessVersion = "6.7",
			RedHue = 0,
			RedSaturation = 0,
			ShadowTint = 0,
			Shadows2012 = 45,
			SharpenDetail = 25,
			SharpenEdgeMasking = 0,
			SharpenRadius = 1.2,
			Sharpness = 25,
			SplitToningBalance = 0,
			SplitToningHighlightHue = 50,
			SplitToningHighlightSaturation = 20,
			SplitToningShadowHue = 259,
			SplitToningShadowSaturation = 20,
			ToneCurveName2012 = "Catch-A-Fire-Lookfilter",
			ToneCurvePV2012 = {
				0,
				30,
				32,
				38,
				56,
				50,
				82,
				72,
				102,
				94,
				118,
				114,
				131,
				130,
				149,
				151,
				168,
				172,
				182,
				186,
				203,
				205,
				225,
				219,
				255,
				230,
			},
			ToneCurvePV2012Blue = {
				0,
				0,
				255,
				255,
			},
			ToneCurvePV2012Green = {
				0,
				0,
				255,
				255,
			},
			ToneCurvePV2012Red = {
				0,
				0,
				255,
				255,
			},
			WhiteBalance = "As Shot",
			Whites2012 = -15,
			orientation = "BC",
		},
		uuid = "4C222A62-996E-4819-8731-0777E79823D5",
	},
	version = 0,
}
