presets/Morrison-Hotel_Free-LR-Presets.co.lrtemplate
s = {
	id = "BE8880F3-D6CB-4666-9DCF-6B7151D89355",
	internalName = "Morrison-Hotel_Free-Lookfilter",
	title = "Morrison-Hotel_Free-Lookfilter",
	type = "Develop",
	value = {
		settings = {
			AutoWhiteVersion = 134348800,
			Blacks2012 = 10,
			BlueHue = 0,
			BlueSaturation = 10,
			CameraProfile = "Embedded",
			Clarity2012 = 20,
			ColorNoiseReduction = 0,
			ColorNoiseReductionDetail = 50,
			ColorNoiseReductionSmoothness = 50,
			Contrast2012 = 5,
			ConvertToGrayscale = false,
			EnableCalibration = true,
			EnableCircularGradientBasedCorrections = true,
			EnableColorAdjustments = true,
			EnableDetail = true,
			EnableEffects = true,
			EnableGradientBasedCorrections = true,
			EnableSplitToning = true,
			Exposure2012 = 0.25,
			GrainAmount = 0,
			GrainFrequency = 50,
			GrainSize = 25,
			GreenHue = 0,
			GreenSaturation = 0,
			Highlights2012 = -15,
			HueAdjustmentAqua = 0,
			HueAdjustmentBlue = 0,
			HueAdjustmentGreen = 0,
			HueAdjustmentMagenta = 0,
			HueAdjustmentOrange = 0,
			HueAdjustmentPurple = 0,
			HueAdjustmentRed = 0,
			HueAdjustmentYellow = 0,
			LuminanceAdjustmentAqua = 0,
			LuminanceAdjustmentBlue = 10,
			LuminanceAdjustmentGreen = 0,
			LuminanceAdjustmentMagenta = 0,
			LuminanceAdjustmentOrange = 0,
			LuminanceAdjustmentPurple = 0,
			LuminanceAdjustmentRed = 0,
			LuminanceAdjustmentYellow = 0,
			LuminanceNoiseReductionContrast = 0,
			LuminanceNoiseReductionDetail = 50,
			LuminanceSmoothing = 0,
			ParametricDarks = 0,
			ParametricHighlightSplit = 75,
			ParametricHighlights = 0,
			ParametricLights = 0,
			ParametricMidtoneSplit = 50,
			ParametricShadowSplit = 25,
			ParametricShadows = 0,
			PostCropVignetteAmount = 0,
			PostCropVignetteFeather = 50,
			PostCropVignetteHighlightContrast = 0,
			PostCropVignetteMidpoint = 50,
			PostCropVignetteRoundness = 0,
			PostCropVignetteStyle = 1,
			ProcessVersion = "6.7",
			RedHue = 0,
			RedSaturation = -5,
			Saturation = -30,
			SaturationAdjustmentAqua = 0,
			SaturationAdjustmentBlue = -30,
			SaturationAdjustmentGreen = 0,
			SaturationAdjustmentMagenta = -10,
			SaturationAdjustmentOrange = 0,
			SaturationAdjustmentPurple = -10,
			SaturationAdjustmentRed = -20,
			SaturationAdjustmentYellow = -30,
			ShadowTint = 0,
			Shadows2012 = 10,
			SharpenDetail = 25,
			SharpenEdgeMasking = 0,
			SharpenRadius = 1,
			Sharpness = 0,
			SplitToningBalance = 5,
			SplitToningHighlightHue = 58,
			SplitToningHighlightSaturation = 22,
			SplitToningShadowHue = 235,
			SplitToningShadowSaturation = 42,
			ToneCurveName2012 = "Morrison-Hotel-Lookfilter",
			ToneCurvePV2012 = {
				0,
				7,
				52,
				40,
				94,
				78,
				126,
				114,
				156,
				151,
				188,
				187,
				221,
				217,
				255,
				243,
			},
			ToneCurvePV2012Blue = {
				0,
				0,
				255,
				255,
			},
			ToneCurvePV2012Green = {
				0,
				0,
				255,
				255,
			},
			ToneCurvePV2012Red = {
				0,
				0,
				255,
				255,
			},
			Vibrance = 15,
			WhiteBalance = "Auto",
			Whites2012 = -15,
			orientation = "BC",
		},
		uuid = "5F25A641-7B74-4A0C-9CD0-515E3ED3FC23",
	},
	version = 0,
}
