presets/Thousand-Oaks_Free-LR-Presets.co.lrtemplate
s = {
	id = "866C0B86-9FC7-4427-96D3-42CFD2C3583D",
	internalName = "Thousand-Oaks_Free-LR-Presets.co",
	title = "Thousand-Oaks_Free-LR-Presets.co",
	type = "Develop",
	value = {
		settings = {
			Blacks2012 = 5,
			BlueHue = 0,
			BlueSaturation = 0,
			CameraProfile = "Embedded",
			Clarity2012 = 20,
			ColorNoiseReduction = 0,
			ColorNoiseReductionDetail = 50,
			ColorNoiseReductionSmoothness = 50,
			Contrast2012 = 30,
			ConvertToGrayscale = false,
			EnableCalibration = true,
			EnableCircularGradientBasedCorrections = true,
			EnableColorAdjustments = true,
			EnableDetail = true,
			EnableEffects = true,
			EnableGradientBasedCorrections = true,
			EnableSplitToning = true,
			Exposure2012 = 0.24,
			GrainAmount = 0,
			GrainFrequency = 50,
			GrainSize = 25,
			GreenHue = 0,
			GreenSaturation = 0,
			Highlights2012 = 0,
			HueAdjustmentAqua = 0,
			HueAdjustmentBlue = 0,
			HueAdjustmentGreen = 0,
			HueAdjustmentMagenta = 0,
			HueAdjustmentOrange = 0,
			HueAdjustmentPurple = 0,
			HueAdjustmentRed = 0,
			HueAdjustmentYellow = 0,
			LuminanceAdjustmentAqua = 0,
			LuminanceAdjustmentBlue = 0,
			LuminanceAdjustmentGreen = 0,
			LuminanceAdjustmentMagenta = 0,
			LuminanceAdjustmentOrange = 0,
			LuminanceAdjustmentPurple = 0,
			LuminanceAdjustmentRed = -10,
			LuminanceAdjustmentYellow = -6,
			LuminanceNoiseReductionContrast = 0,
			LuminanceNoiseReductionDetail = 50,
			LuminanceSmoothing = 0,
			ParametricDarks = 0,
			ParametricHighlightSplit = 75,
			ParametricHighlights = 0,
			ParametricLights = 0,
			ParametricMidtoneSplit = 50,
			ParametricShadowSplit = 25,
			ParametricShadows = 0,
			PostCropVignetteAmount = 0,
			PostCropVignetteFeather = 50,
			PostCropVignetteHighlightContrast = 0,
			PostCropVignetteMidpoint = 50,
			PostCropVignetteRoundness = 0,
			PostCropVignetteStyle = 1,
			ProcessVersion = "6.7",
			RedHue = 0,
			RedSaturation = 0,
			Saturation = 0,
			SaturationAdjustmentAqua = -5,
			SaturationAdjustmentBlue = -5,
			SaturationAdjustmentGreen = -15,
			SaturationAdjustmentMagenta = -5,
			SaturationAdjustmentOrange = -15,
			SaturationAdjustmentPurple = -5,
			SaturationAdjustmentRed = -10,
			SaturationAdjustmentYellow = -15,
			ShadowTint = 0,
			Shadows2012 = 24,
			SplitToningBalance = 57,
			SplitToningHighlightHue = 53,
			SplitToningHighlightSaturation = 22,
			SplitToningShadowHue = 242,
			SplitToningShadowSaturation = 8,
			ToneCurveName2012 = "Thousand-Oaks_FLP.co",
			ToneCurvePV2012 = {
				0,
				28,
				61,
				53,
				108,
				98,
				143,
				141,
				181,
				181,
				215,
				212,
				255,
				244,
			},
			ToneCurvePV2012Blue = {
				0,
				0,
				255,
				255,
			},
			ToneCurvePV2012Green = {
				0,
				0,
				255,
				255,
			},
			ToneCurvePV2012Red = {
				0,
				0,
				255,
				255,
			},
			Vibrance = 20,
			WhiteBalance = "As Shot",
			Whites2012 = 0,
			orientation = "AB",
		},
		uuid = "8E17FA4E-551F-4177-A60A-B214F8FAAEB3",
	},
	version = 0,
}
